icons/rainbow-line.svg

<svg xmlns="http://www.w3.org/2000/svg" width="24" height="24" fill="none"><g clip-path="url(#a)"><g><path fill="#121212" d="M12 4C18.075 4 23 8.925 23 15V20H21V15C21 12.659 20.0878 10.41 18.4569 8.73049C16.8261 7.05094 14.605 6.07293 12.265 6.004L12 6C9.65896 6.00003 7.41005 6.91224 5.73049 8.54306C4.05094 10.1739 3.07293 12.395 3.004 14.735L3 15V20H1V15C1 8.925 5.925 4 12 4ZM12 8C13.8565 8 15.637 8.7375 16.9497 10.0503C18.2625 11.363 19 13.1435 19 15V20H17V15C16.9999 13.7115 16.5025 12.4728 15.6113 11.5422C14.7202 10.6116 13.5042 10.0609 12.217 10.005L12 10C10.7115 10.0001 9.47284 10.4975 8.54222 11.3887C7.61161 12.2798 7.06092 13.4958 7.005 14.783L7 15V20H5V15C5 13.1435 5.7375 11.363 7.05025 10.0503C8.36301 8.7375 10.1435 8 12 8ZM12 12C12.7956 12 13.5587 12.3161 14.1213 12.8787C14.6839 13.4413 15 14.2044 15 15V20H13V15C13 14.7551 12.91 14.5187 12.7473 14.3356C12.5845 14.1526 12.3603 14.0357 12.117 14.007L12 14C11.7551 14 11.5187 14.09 11.3356 14.2527C11.1526 14.4155 11.0357 14.6397 11.007 14.883L11 15V20H9V15C9 14.2044 9.31607 13.4413 9.87868 12.8787C10.4413 12.3161 11.2044 12 12 12Z"/></g></g><defs><clipPath id="a"><rect width="24" height="24" fill="white"/></clipPath></defs></svg>

<svg width="24" height="24" fill="none" xmlns="http://www.w3.org/2000/svg"><g clip-path="url(#a)"><path d="M12 4c6.075 0 11 4.925 11 11v5h-2v-5a9 9 0 0 0-8.735-8.996L12 6a9 9 0 0 0-8.996 8.735L3 15v5H1v-5C1 8.925 5.925 4 12 4Zm0 4a7 7 0 0 1 7 7v5h-2v-5a5 5 0 0 0-4.783-4.995L12 10a5 5 0 0 0-4.995 4.783L7 15v5H5v-5a7 7 0 0 1 7-7Zm0 4a3 3 0 0 1 3 3v5h-2v-5a1 1 0 0 0-.883-.993L12 14a1 1 0 0 0-.993.883L11 15v5H9v-5a3 3 0 0 1 3-3Z" /></g><defs><clipPath id="a"><path fill="#fff" d="M0 0h24v24H0z"/></clipPath></defs></svg>
